X: 21379
T: Kerry Mills'
R: barndance
M: 4/4
K: Dmajor
(3FG^G|AFAd BGBd|AFAd f2ef|gfed cAcd|(3efe (3dcB A2(3FG^G|
AFAd BGBd|AFAd f2ef|gfed cAcd|(3efe dc d3 B|
[A2F2] [A2D2] [B2G2] [B2^E2]|[A2F2] (3DFA defa|gb fg edcd|(3efe (3dcB ~A2(3FG^G|
AFAd BGBd|AFAd f2ef|gfed cAcd|(3efe dc defg||
|:afba ~f2fg|afba fdfa|gb fg edcd|(3efe (3dcB A4|
[1 afba ~f2fg|afba fdfa|gb fg edcd|(3efe dc defg:|
[2{FG^G}AFAd BGBd|AFAd f2ef|gfed cAcd|(3efe dc d2 z2||

